X:8117
T:Willie Clancy's
O:england
R:fling
S:J\"orgen Fischer
M:C|
K:G
GB~B2 c3e|dG{A}GA B2{c}AG|1 GB~B2 cd{a}ec|
d2{a}ed {c}BGD2:|2 c2cB ce{a}ge|d2{a}dB {c}AD{A}ED||
~G2Bd g3d|{a}edBd de{a}gd|~G2Bd ~g3e|~f2ed ed{c}BA|
~G2Bd g3d|{a}edBd dega|{b}af{a}gf {a}fe{a}ed|{a}gedB deg2||
This file contains 99 hornpipes (#1 - #99).
You can find more abc tune files at http://home1.swipnet.se/~w-11382/abc.htm
I've transcribed them as I have learnt them, which does not necessarily mean
that I play them that way nowadays. Many of the tunes include variations and
different versions. If there is a source (S:) or discography (D:) included the
version transcribed might still not be exactly as that source played the tune,
since I might have changed the tune around a bit when I learnt it.
The tunes were learnt from sessions, from friends or from recordings.
When I've included discography, it's often just a reference to what recordings
the tune appears on.
Last updated 24 August 1998.
(c) Copyright 1996-1998 Henrik Norbeck. This file:
- May be distributed freely (with restrictions below).
- May not be used for commercial purposes (such as printing a tune book to sell).
- This file (or parts of it) may not be made available on a web page for
download without permission from me.
- This copyright notice must be kept, except when e-mailing individual tunes.
- May be printed on paper for personal use.
- Questions? E-mail: henrik.norbeck@mailbox.swipnet.se
R:hornpipe
M:C|


